icons/bhi_comment-o.svg

<svg xmlns="http://www.w3.org/2000/svg" viewBox="0 0 512 512" enable-background="new 0 0 512 512"><path fill="#010101" d="M416 512c-6.4 0-10.7-2.1-14.9-6.4l-100.3-119.5c-10.7-10.7-25.6-34.1-40.5-34.1h-202.7c-34.1 0-57.6-1.5-57.6-40.5v-253.9c0-32 25.6-57.6 55.5-57.6h398.9c32 0 57.6 25.6 57.6 57.6v230.4c0 44-29.9 64-61.9 64h-2.1v138.7c0 8.3-6.5 21.3-32 21.3zm-360.5-480c-15 0-23.5 8.5-23.5 23.5v253.9c0 10.6 10.5 10.6 23.5 10.6h202.7c23.5 0 44.8 25.6 61.9 42.7l95.9 117.3v-138.7c0-10.7 8.5-21.3 21.3-21.3h19.2c14.9 0 23.5-17.1 23.5-32v-230.4c0-14.9-8.5-25.6-23.5-25.6h-401zM401.1 192h-290.2c-8.5 0-14.9-6.4-14.9-14.9v-2.1c0-8.5 6.4-14.9 14.9-14.9h290.1c8.5 0 14.9 6.4 14.9 14.9v2.1c.1 8.5-6.3 14.9-14.8 14.9zM288 96h-177.1c-8.5 0-14.9-6.4-14.9-14.9v-2.1c0-8.5 6.4-14.9 14.9-14.9h177.1c8.5 0 14.9 6.4 14.9 14.9v2.1c0 8.5-6.4 14.9-14.9 14.9zM369.1 288h-258.2c-8.5 0-14.9-6.4-14.9-14.9v-2.1c0-8.5 6.4-14.9 14.9-14.9h258.1c8.5 0 14.9 6.4 14.9 14.9v2.1c.1 8.5-6.3 14.9-14.8 14.9z"/></svg>

<?xml version="1.0" encoding="utf-8"?>
<!-- Generator: Adobe Illustrator 19.2.0, SVG Export Plug-In . SVG Version: 6.00 Build 0)  -->
<svg version="1.1" id="Layer_1" xmlns="http://www.w3.org/2000/svg" xmlns:xlink="http://www.w3.org/1999/xlink" x="0px" y="0px"
	 viewBox="0 0 512 512" enable-background="new 0 0 512 512" xml:space="preserve">
<g>
	<path fill="#010101" d="M416,512c-6.4,0-10.7-2.1-14.9-6.4L300.8,386.1c-10.7-10.7-25.6-34.1-40.5-34.1H57.6
		C23.5,352,0,350.5,0,311.5V57.6C0,25.6,25.6,0,55.5,0h398.9c32,0,57.6,25.6,57.6,57.6V288c0,44-29.9,64-61.9,64H448v138.7
		C448,499,441.5,512,416,512z M55.5,32C40.5,32,32,40.5,32,55.5v253.9C32,320,42.5,320,55.5,320h202.7c23.5,0,44.8,25.6,61.9,42.7
		L416,480V341.3c0-10.7,8.5-21.3,21.3-21.3h19.2c14.9,0,23.5-17.1,23.5-32V57.6c0-14.9-8.5-25.6-23.5-25.6L55.5,32L55.5,32z"/>
</g>
<path fill="#010101" d="M401.1,192H110.9c-8.5,0-14.9-6.4-14.9-14.9v-2.1c0-8.5,6.4-14.9,14.9-14.9h290.1c8.5,0,14.9,6.4,14.9,14.9
	v2.1C416,185.6,409.6,192,401.1,192z"/>
<path fill="#010101" d="M288,96H110.9C102.4,96,96,89.6,96,81.1v-2.1c0-8.5,6.4-14.9,14.9-14.9H288c8.5,0,14.9,6.4,14.9,14.9v2.1
	C302.9,89.6,296.5,96,288,96z"/>
<path fill="#010101" d="M369.1,288H110.9c-8.5,0-14.9-6.4-14.9-14.9v-2.1c0-8.5,6.4-14.9,14.9-14.9h258.1c8.5,0,14.9,6.4,14.9,14.9
	v2.1C384,281.6,377.6,288,369.1,288z"/>
</svg>
